X:25
T:West Cottage Hornpipe. AJH.025
T:Horse Block Hornpipe. AJH.025
M:4/4
L:1/8
Q:1/2=90
S:A.J.Hughes MS
O:England
A:North Shropshire
N:Alternative title in MS.
Z:Neil Brookes 2006
K:A
cd|ecAc dBAG|Aceg a2 gf|ecAc dfec|d2B2B2cd|!
ecAc dBAG|Aceg a2 gf|ecAc dfed|c2A2A2:|!
|:(3efg|a2 fa gbge|afaf g2e2|agaf ecAc|d2B2B2 cd|!
ecAc dBAG|Aceg a2 gf|ecAc dfed|c2A2A2:|

